X:217 
T:Uluachan Dubh O  
B:RC3.070
F:file ID roche.3/217udo
Z:bill@capeirish.com
N:This is the same tune as "Fair Hills of Eire/Erin". I think 
the correct spelling of the Gaelic name is 'Uilleachan' but 
I can't find the word (= bird name?) in any of my dictionaries!
Q:60
L:1/8
M:4/4
K:C
"rather slow & plaintive"
G2|c3d cBAG|G2Bd e2ge|d<BA<G E>DE>G|G4z2B2|
c3d cBAG|G2Bd e2ge|d<BA<G E>DE>G|G4 z2 ze||
f3g fedc|d2eg g2ze|f3g fege|dBAG HEG/A/ B/c/d/e/|
f3g feg2|G2 Bd e2ge|d<BA<G E>DE>G|G8|]

